X:1

T:Robertson’s Reel

M:4/4

L:1/8

R:Reel

K:A

AB|c2 Bc e2 cB|ABAF E2 AB|c2 Bc ecAc|B6 AB|c2 Bc e2 cB|

ABAF E2 AB|cBce BABe|A6::cd|e2 ce a2 ga|fecd e2 cd|

e2 ce a2 ga|f4 ef|a2A2A2 cB|ABAF E2 AB|cBce BABe|A6:|

                       

ROBI DOWN/DONN. A closely related air to "The Campbells are Coming [1]" or "Hob or/a Nob."

                       

ROBIE DONUA GORACH {or "Robi Donadh Gorrach," "Robaidh dona gorach"} (Daft Robin). AKA and see "Daft Robin," "Johnnie Armstrong," "Tod(d)lin’ Hame," "The Wagoner's Lad," "Bacach," "The Drunken Hiccups [1]," "Rye Whiskey [1]," "Jack of Diamonds [3]," "Clinch Mountain," "The Cuckoo [5]." Scottish, Slow Air (4/4 time). A Major. Standard tuning. AABBCCDDEEFF. "An Old Highland Song" (as noted in Gow's collection) set by Nathaniel Gow (1763‑1831), though published under his father Niel's name. Johnson (1984) says the title translates literaly as "Silly Naughty Robbie." Source for notated version: Niel Gow's Strathspey Reels, vol. i, pg. 36 [Johnson]. Johnson (Scottish Fiddle Music in the 18th Century), 1984; No. 24, pgs. 61‑62.

                       

ROBIN ADAIR. AKA and see "Eibhlin a Ruin/Run," "Eileen/Aileen Aroon," "Ellen A Roon." Irish, Scottish; Air. D Major. Standard tuning. AAB. The song was popularized in Scotland by the long‑lived Irish harper Donnchadh a Haimpsuigh, also known as Denis O'Hampsey or Hempson (1697‑1807), who had crossed over from Ireland a second time in 1745 to play for Bonnie Prince Charlie at Edinburgh (The collector Edward Bunting later noted several of Hempson's tunes). He played many Irish airs later claimed as Scottish, as this one was, according to Flood (1905, 1906). In fact, claims have been made by the Irish, Scots and English, for national origin of the piece.

***

The words of “Robin Adair,” set to the tune of "Eileen Aroon," were written by Lady Caroline Keppel (1735-1769) in the early 1750's about her lover, an Irish surgeon named Robert (‘Robin’) Adair, whom she was permitted to marry only several years later, when she was twenty-one. She died in 1769 at the age of thirty-two. The song was first published under the "Adair" title in 1793 in The Edinburgh Musical Miscellany, volume II, pg. 304, and it was featured by Mr. Braham early in the 19th century. The words begin:

***

What's this dull town to me?
Robin's not near;
What was't I wish'd to see?
What wish'd to hear?
Where all the joy and mirth,
Made this town heav'n on earth,
Oh! they've all fled wi' thee,
Robin Adair.

***

Howe (1000 Jigs and Reels), c. 1867; pg. 125.

